X: 372
M: C
L: 1/8
K: G
V: 1
|: Bc |\
dBdB dBge | dBAG E2Bc | dBdB dBge | dBAF G2 :|
V: 2 clef=bass middle=d
z2 |\
e2E2 e2E2 | d2D2 d2D2 | G2ga b2c'2 | b2c'2 d'2d2 |
e2E2 e2E2 | d2D2 d2D2 | G2ga b2c'2 | d'2d2 g2 |:
g2G2 g2c2 | g2G2 c2G2 | g2G2 g2c2 | d2D2 G2 :|

